gtk/icons/scalable/actions/view-list-symbolic.svg

<svg xmlns="http://www.w3.org/2000/svg" width="16" height="16" viewBox="0 0 16 16"><path fill="none" d="M4 2v2H2V2Zm0 5v2H2V7Zm0 5v2H2v-2zm4 1h6M8 8h6M8 3h6" class="foreground-stroke transparent-fill" style="fill:#000;fill-opacity:0;stroke:#241f31;stroke-width:2;stroke-linecap:round;stroke-linejoin:round;paint-order:stroke markers fill"/></svg>

<svg width='16' height='16'
     xmlns:gpa='https://www.gtk.org/grappa'
     gpa:version='1'
     gpa:keywords='view list'
     gpa:state='0'>
  <path d='M 4 2 L 4 4 L 2 4 L 2 2 Z M 4 7 L 4 9 L 2 9 L 2 7 Z M 4 12 L 4 14 L 2 14 L 2 12 Z M 8 13 L 14 13 M 8 8 L 14 8 M 8 3 L 14 3'
        id='path0'
        stroke-width='2'
        stroke-linecap='round'
        stroke-linejoin='round'
        stroke='rgb(0,0,0)'
        fill='none'
        class='foreground-stroke transparent-fill'/>
</svg>
